Simply-Green-Circles/scalable/categories/applications-electronics.svg

<svg xmlns="http://www.w3.org/2000/svg" width="48" height="48" viewBox="0 0 12.7 12.7"><path d="M6.34.07a6.29 6.29 0 0 0-6.29 6.3 6.29 6.29 0 0 0 6.3 6.28 6.29 6.29 0 0 0 6.28-6.29A6.29 6.29 0 0 0 6.34.07zm-.01.94a5.4 5.4 0 0 1 5.4 5.4 5.4 5.4 0 0 1-5.4 5.41 5.4 5.4 0 0 1-5.41-5.4A5.4 5.4 0 0 1 6.32 1zM4.6 2.79v2.36h1.14l.02-.06a.55.55 0 0 1 .5-.36c.3 0 .55.25.55.55a.54.54 0 1 1-1.02.26l-.03-.05h-1.5V2.8H2.83v4.25l2.42 1.07.05-.06a.55.55 0 0 1 .43-.2.57.57 0 0 1 0 1.13.56.56 0 0 1-.55-.49l-.01-.05-2.34-1.03v2.5h7.04V2.8h-1.1v2.15l.04.03c.15.1.24.27.24.45a.53.53 0 0 1-.53.53.53.53 0 0 1-.53-.53c0-.23.15-.44.37-.5l.06-.03V2.8H4.6zm1.66 2.25a.28.28 0 0 0-.28.28.28.28 0 0 0 .28.27.28.28 0 0 0 .28-.28.28.28 0 0 0-.28-.27zm2.25.1a.28.28 0 0 0-.27.28.28.28 0 0 0 .27.28.28.28 0 0 0 .28-.28.28.28 0 0 0-.28-.28zm-2.8 3a.28.28 0 0 0-.28.27c0 .16.12.28.27.28a.28.28 0 0 0 .3-.28.28.28 0 0 0-.28-.28z" fill="#2ca02c"/></svg>

<?xml version="1.0" encoding="UTF-8" standalone="no"?>
<svg
   xmlns:dc="http://purl.org/dc/elements/1.1/"
   xmlns:cc="http://creativecommons.org/ns#"
   xmlns:rdf="http://www.w3.org/1999/02/22-rdf-syntax-ns#"
   xmlns:svg="http://www.w3.org/2000/svg"
   xmlns="http://www.w3.org/2000/svg"
   xmlns:sodipodi="http://sodipodi.sourceforge.net/DTD/sodipodi-0.dtd"
   xmlns:inkscape="http://www.inkscape.org/namespaces/inkscape"
   width="48"
   height="48"
   viewBox="0 0 12.7 12.7"
   version="1.1"
   id="svg4"
   sodipodi:docname="applications-electronics.svg"
   inkscape:version="0.92.4 (5da689c313, 2019-01-14)">
  <metadata
     id="metadata10">
    <rdf:RDF>
      <cc:Work
         rdf:about="">
        <dc:format>image/svg+xml</dc:format>
        <dc:type
           rdf:resource="http://purl.org/dc/dcmitype/StillImage" />
        <dc:title></dc:title>
      </cc:Work>
    </rdf:RDF>
  </metadata>
  <defs
     id="defs8" />
  <sodipodi:namedview
     pagecolor="#ffffff"
     bordercolor="#666666"
     borderopacity="1"
     objecttolerance="10"
     gridtolerance="10"
     guidetolerance="10"
     inkscape:pageopacity="0"
     inkscape:pageshadow="2"
     inkscape:window-width="1087"
     inkscape:window-height="480"
     id="namedview6"
     showgrid="false"
     inkscape:zoom="4.9166667"
     inkscape:cx="2.1355932"
     inkscape:cy="24"
     inkscape:window-x="0"
     inkscape:window-y="25"
     inkscape:window-maximized="0"
     inkscape:current-layer="svg4" />
  <path
     d="M 6.34,0.07 A 6.29,6.29 0 0 0 0.05,6.37 6.29,6.29 0 0 0 6.35,12.65 6.29,6.29 0 0 0 12.63,6.36 6.29,6.29 0 0 0 6.34,0.07 Z M 6.33,1.01 a 5.4,5.4 0 0 1 5.4,5.4 5.4,5.4 0 0 1 -5.4,5.41 A 5.4,5.4 0 0 1 0.92,6.42 5.4,5.4 0 0 1 6.32,1 Z M 4.6,2.79 V 5.15 H 5.74 L 5.76,5.09 a 0.55,0.55 0 0 1 0.5,-0.36 c 0.3,0 0.55,0.25 0.55,0.55 A 0.54,0.54 0 1 1 5.79,5.54 L 5.76,5.49 H 4.26 V 2.8 H 2.83 V 7.05 L 5.25,8.12 5.3,8.06 a 0.55,0.55 0 0 1 0.43,-0.2 c 0.3,0 0.55,0.25 0.55,0.56 0,0.31 -0.25,0.57 -0.55,0.57 A 0.56,0.56 0 0 1 5.18,8.5 L 5.17,8.45 2.83,7.42 v 2.5 H 9.87 V 2.8 h -1.1 v 2.15 l 0.04,0.03 c 0.15,0.1 0.24,0.27 0.24,0.45 A 0.53,0.53 0 0 1 8.52,5.96 0.53,0.53 0 0 1 7.99,5.43 C 7.99,5.2 8.14,4.99 8.36,4.93 L 8.42,4.9 V 2.8 H 4.6 Z M 6.26,5.04 A 0.28,0.28 0 0 0 5.98,5.32 0.28,0.28 0 0 0 6.26,5.59 0.28,0.28 0 0 0 6.54,5.31 0.28,0.28 0 0 0 6.26,5.04 Z m 2.25,0.1 A 0.28,0.28 0 0 0 8.24,5.42 0.28,0.28 0 0 0 8.51,5.7 0.28,0.28 0 0 0 8.79,5.42 0.28,0.28 0 0 0 8.51,5.14 Z m -2.8,3 A 0.28,0.28 0 0 0 5.43,8.41 c 0,0.16 0.12,0.28 0.27,0.28 A 0.28,0.28 0 0 0 6,8.41 0.28,0.28 0 0 0 5.72,8.13 Z"
     id="path2"
     inkscape:connector-curvature="0"
     style="fill:#2ca02c" />
</svg>
